X:82
T:H\aa{}rgal\aa{}t
S:Hester (e. Orsa Spelmanslag)
R:Polska
R:Hambo
O:Sweden
M:3/4
I:speed 300
A:Dalarna
K:Am
e2 e>f e>d|d>c c2 A>c|\
c>B B>E ^G>B|A>^G A>B c>d|\
e2 e>f e>d|d>c c2 A>c|\
c>B B>E ^G>B|"Fine"A2 A4::\
c>d e2c2|d>ef2d2|g2g>a g>f|f>ee4|\
c>d e2c2|d>ef2d2|g2g>a g>f|f>ee4|
e2e>f e>d|d>cc2A>c|c>B B>E ^G>B|A>^G A>B c>d|\
e2e>f e>d|d>c c2A>c|c>B B>E ^G>B|A2A4 :|
|:\
(3ABA ^G2A2|(3BcB A2B2|c>d c>B c>d|e>f e>d c>B|\
(3ABA ^G2A2|(3BcB A2B2|c>d c>B c>d|e2f2^f2|
g>fd2 (3def|e>dc4| e>dB2(3Bcd|c>BA4|\
a>fd2(3def|e>cA4|B>^G E>G B>c|A2A4:|
